src/4-icons/camera.svg

<svg width="260" height="260" viewBox="0 0 260 260" fill="none" xmlns="http://www.w3.org/2000/svg">
<path d="M200.2 82.0554H102.335C102.335 81.9508 102.361 81.8736 102.361 81.7954V73.969C102.335 68.2236 97.707 63.5944 91.9606 63.569H71.967C66.2216 63.5954 61.5924 68.2236 61.567 73.969V81.7954C61.567 81.9 61.5934 81.9772 61.5934 82.0554H59.7988C52.6224 82.0808 46.8252 87.879 46.7988 95.0554V183.455C46.8252 190.632 52.6224 196.429 59.7988 196.455H200.199C207.374 196.43 213.172 190.632 213.199 183.455V95.0554C213.173 87.8536 207.375 82.0554 200.199 82.0554H200.2ZM71.968 73.9436H91.9616V81.77H71.968V73.9436ZM202.046 185.275C201.552 185.77 200.928 186.03 200.201 186.055H59.8009C59.0991 186.055 58.4745 185.77 57.9545 185.275C57.4609 184.781 57.2009 184.157 57.2009 183.455V95.0554C57.2009 94.3536 57.4873 93.73 57.9545 93.2354C58.448 92.7408 59.0727 92.4808 59.8009 92.4554H200.201C200.903 92.4554 201.526 92.7408 202.046 93.2354C202.541 93.73 202.801 94.3536 202.801 95.0554V183.455C202.801 184.157 202.515 184.781 202.046 185.275Z" fill="black"/>
<path d="M130 100.255C108.446 100.255 91 117.701 91 139.255C91 160.81 108.445 178.255 130 178.255C151.554 178.255 169 160.809 169 139.255C169 117.702 151.554 100.255 130 100.255ZM150.228 159.484C145.028 164.658 137.93 167.855 130 167.855C122.096 167.855 114.972 164.657 109.772 159.484C104.598 154.284 101.4 147.185 101.4 139.255C101.4 131.352 104.598 124.227 109.772 119.027C114.972 113.854 122.07 110.655 130 110.655C137.904 110.655 145.028 113.854 150.228 119.027C155.403 124.227 158.6 131.325 158.6 139.255C158.6 147.159 155.402 154.284 150.228 159.484Z" fill="black"/>
<path d="M106.756 139.775C106.756 145.287 108.602 150.409 111.696 154.465L117.91 149.76C115.805 146.978 114.556 143.545 114.556 139.775C114.556 135.199 116.402 131.065 119.418 128.075C122.434 125.06 126.542 123.214 131.118 123.214C135.07 123.214 138.658 124.592 141.518 126.879L146.406 120.821C142.246 117.441 136.891 115.439 131.118 115.439C117.676 115.414 106.756 126.334 106.756 139.775Z" fill="black"/>
</svg>

<svg width="260" height="260" fill="none" xmlns="http://www.w3.org/2000/svg"><path d="M200.2 82.055h-97.865c0-.104.026-.181.026-.26V73.97a10.43 10.43 0 0 0-10.4-10.4H71.967a10.431 10.431 0 0 0-10.4 10.4v7.826c0 .105.026.182.026.26H59.8c-7.177.026-12.974 5.824-13 13v88.4a13.037 13.037 0 0 0 13 13h140.4c7.175-.025 12.973-5.823 13-13v-88.4c-.026-7.201-5.824-13-13-13h.001ZM71.968 73.944h19.994v7.826H71.968v-7.826Zm130.078 111.331c-.494.495-1.118.755-1.845.78h-140.4c-.702 0-1.327-.285-1.846-.78a2.515 2.515 0 0 1-.754-1.82v-88.4c0-.701.286-1.325.754-1.82.493-.494 1.118-.754 1.846-.78h140.4c.702 0 1.325.286 1.845.78.495.495.755 1.119.755 1.82v88.4c0 .702-.286 1.326-.755 1.82Z" fill="#000"/><path d="M130 100.255c-21.554 0-39 17.446-39 39 0 21.555 17.445 39 39 39 21.554 0 39-17.446 39-39 0-21.553-17.446-39-39-39Zm20.228 59.229c-5.2 5.174-12.298 8.371-20.228 8.371-7.904 0-15.028-3.198-20.228-8.371-5.174-5.2-8.372-12.299-8.372-20.229 0-7.903 3.198-15.028 8.372-20.228 5.2-5.173 12.298-8.372 20.228-8.372 7.904 0 15.028 3.199 20.228 8.372 5.175 5.2 8.372 12.298 8.372 20.228 0 7.904-3.198 15.029-8.372 20.229Z" fill="#000"/><path d="M106.756 139.775a24.2 24.2 0 0 0 4.94 14.69l6.214-4.705a16.437 16.437 0 0 1-3.354-9.985c0-4.576 1.846-8.71 4.862-11.7 3.016-3.015 7.124-4.861 11.7-4.861 3.952 0 7.54 1.378 10.4 3.665l4.888-6.058c-4.16-3.38-9.515-5.382-15.288-5.382-13.442-.025-24.362 10.895-24.362 24.336Z" fill="#000"/></svg>
